build/fonts/cisco/smallbusiness.svg

<?xml version="1.0" encoding="UTF-8" standalone="no"?>
<svg
   xmlns:dc="http://purl.org/dc/elements/1.1/"
   xmlns:cc="http://creativecommons.org/ns#"
   xmlns:rdf="http://www.w3.org/1999/02/22-rdf-syntax-ns#"
   xmlns:svg="http://www.w3.org/2000/svg"
   xmlns="http://www.w3.org/2000/svg"
   viewBox="0 0 57.5 33.75"
   height="33.75"
   width="57.5"
   xml:space="preserve"
   version="1.1"
   id="svg2"><metadata
     id="metadata8"><rdf:RDF><cc:Work
         rdf:about=""><dc:format>image/svg+xml</dc:format><dc:type
           rdf:resource="http://purl.org/dc/dcmitype/StillImage" /></cc:Work></rdf:RDF></metadata><defs
     id="defs6"><clipPath
       id="clipPath18"
       clipPathUnits="userSpaceOnUse"><path
         id="path20"
         d="m 0,10 460,0 0,260 L 0,270 0,10 Z" /></clipPath></defs><g
     transform="matrix(1.25,0,0,-1.25,0,33.75)"
     id="g10"><g
       transform="scale(0.1,0.1)"
       id="g12"><g
         id="g14"><g
           clip-path="url(#clipPath18)"
           id="g16"><path
             id="path22"
             style="fill:#036998;fill-opacity:1;fill-rule:nonzero;stroke:none"
             d="m 18.9102,35.9805 425.738,0 0,232.031 -425.738,0 0,-232.031 z" /><path
             id="path24"
             style="fill:none;stroke:#ffffff;stroke-width:3.99993992;stroke-linecap:butt;stroke-linejoin:miter;stroke-miterlimit:4;stroke-dasharray:none;stroke-opacity:1"
             d="m 18.9102,35.9805 425.738,0 0,232.031 -425.738,0 0,-232.031 z" /><path
             id="path26"
             style="fill:#036998;fill-opacity:1;fill-rule:nonzero;stroke:none"
             d="m 191.051,40.0391 41.3711,0 0,138.711 -41.3711,0 0,-138.711 z" /><path
             id="path28"
             style="fill:none;stroke:#ffffff;stroke-width:3.99993992;stroke-linecap:butt;stroke-linejoin:miter;stroke-miterlimit:4;stroke-dasharray:none;stroke-opacity:1"
             d="m 191.051,40.0391 41.3711,0 0,138.711 -41.3711,0 0,-138.711 z" /><path
             id="path30"
             style="fill:#036998;fill-opacity:1;fill-rule:nonzero;stroke:none"
             d="m 232.422,40.0391 41.2891,0 0,138.711 -41.2891,0 0,-138.711 z" /><path
             id="path32"
             style="fill:none;stroke:#ffffff;stroke-width:3.99993992;stroke-linecap:butt;stroke-linejoin:miter;stroke-miterlimit:4;stroke-dasharray:none;stroke-opacity:1"
             d="m 232.422,40.0391 41.2891,0 0,138.711 -41.2891,0 0,-138.711 z" /><path
             id="path34"
             style="fill:#036998;fill-opacity:1;fill-rule:nonzero;stroke:none"
             d="m 178.789,30.1602 107.27,0 0,9.87891 -107.27,0 0,-9.87891 z" /><path
             id="path36"
             style="fill:none;stroke:#ffffff;stroke-width:3.99993992;stroke-linecap:butt;stroke-linejoin:miter;stroke-miterlimit:4;stroke-dasharray:none;stroke-opacity:1"
             d="m 178.789,30.1602 107.27,0 0,9.87891 -107.27,0 0,-9.87891 z" /><path
             id="path38"
             style="fill:#036998;fill-opacity:1;fill-rule:nonzero;stroke:none"
             d="m 173.32,20.1602 118.199,0 0,10 -118.199,0 0,-10 z" /><path
             id="path40"
             style="fill:none;stroke:#ffffff;stroke-width:3.99993992;stroke-linecap:butt;stroke-linejoin:miter;stroke-miterlimit:4;stroke-dasharray:none;stroke-opacity:1"
             d="m 173.32,20.1602 118.199,0 0,10 -118.199,0 0,-10 z" /><path
             id="path42"
             style="fill:#036998;fill-opacity:1;fill-rule:nonzero;stroke:none"
             d="m 168.281,10.1992 128.277,0 0,9.96094 -128.277,0 0,-9.96094 z" /><path
             id="path44"
             style="fill:none;stroke:#ffffff;stroke-width:3.99993992;stroke-linecap:butt;stroke-linejoin:miter;stroke-miterlimit:4;stroke-dasharray:none;stroke-opacity:1"
             d="m 168.281,10.1992 128.277,0 0,9.96094 -128.277,0 0,-9.96094 z" /><path
             id="path46"
             style="fill:none;stroke:#ffffff;stroke-width:3.99993992;stroke-linecap:butt;stroke-linejoin:miter;stroke-miterlimit:4;stroke-dasharray:none;stroke-opacity:1"
             d="m 211.051,117.5 11.219,0" /><path
             id="path48"
             style="fill:none;stroke:#ffffff;stroke-width:3.99993992;stroke-linecap:butt;stroke-linejoin:miter;stroke-miterlimit:4;stroke-dasharray:none;stroke-opacity:1"
             d="m 253.75,117.5 -11.211,0" /><path
             id="path50"
             style="fill:#036998;fill-opacity:1;fill-rule:nonzero;stroke:none"
             d="m 450.121,248.32 10.5,-22.3 -457.46084,0 10.51174,22.3 436.4491,0" /><path
             id="path52"
             style="fill:none;stroke:#ffffff;stroke-width:3.99993992;stroke-linecap:butt;stroke-linejoin:miter;stroke-miterlimit:4;stroke-dasharray:none;stroke-opacity:1"
             d="m 450.121,248.32 10.5,-22.3 -457.46084,0 10.51174,22.3 436.4491,0 z" /><path
             id="path54"
             style="fill:#036998;fill-opacity:1;fill-rule:nonzero;stroke:none"
             d="m 62.6211,90.7813 82.7695,0 0,114.527 -82.7695,0 0,-114.527 z" /><path
             id="path56"
             style="fill:none;stroke:#ffffff;stroke-width:3.99993992;stroke-linecap:butt;stroke-linejoin:miter;stroke-miterlimit:4;stroke-dasharray:none;stroke-opacity:1"
             d="m 62.6211,90.7813 82.7695,0 0,114.527 -82.7695,0 0,-114.527 z" /><path
             id="path58"
             style="fill:#036998;fill-opacity:1;fill-rule:nonzero;stroke:none"
             d="m 318.09,90.7383 82.7695,0 0,114.531 -82.7695,0 0,-114.531 z" /><path
             id="path60"
             style="fill:none;stroke:#ffffff;stroke-width:3.99993992;stroke-linecap:butt;stroke-linejoin:miter;stroke-miterlimit:4;stroke-dasharray:none;stroke-opacity:1"
             d="m 318.09,90.7383 82.7695,0 0,114.531 -82.7695,0 0,-114.531 z" /></g></g></g></g></svg>

<svg xmlns="http://www.w3.org/2000/svg" viewBox="0 0 57.5 33.75" height="33.75" width="57.5"><defs><clipPath id="a"><path d="M0 10h460v260H0V10z"/></clipPath></defs><g clip-path="url(#a)" transform="matrix(.13 0 0 -.13 0 33.75)"><path d="M18.91 35.98h425.738v232.031H18.91V35.982z" fill="#036998"/><path d="M18.91 35.98h425.738v232.031H18.91V35.982z" fill="none" stroke="#fff" stroke-width="4"/><path d="M191.051 40.04h41.371v138.71h-41.371V40.04z" fill="#036998"/><path d="M191.051 40.04h41.371v138.71h-41.371V40.04z" fill="none" stroke="#fff" stroke-width="4"/><path d="M232.422 40.04h41.29v138.71h-41.29V40.04z" fill="#036998"/><path d="M232.422 40.04h41.29v138.71h-41.29V40.04z" fill="none" stroke="#fff" stroke-width="4"/><path d="M178.789 30.16h107.27v9.88h-107.27v-9.88z" fill="#036998"/><path d="M178.789 30.16h107.27v9.88h-107.27v-9.88z" fill="none" stroke="#fff" stroke-width="4"/><path d="M173.32 20.16h118.199v10H173.32v-10z" fill="#036998"/><path d="M173.32 20.16h118.199v10H173.32v-10z" fill="none" stroke="#fff" stroke-width="4"/><path d="M168.281 10.2h128.277v9.96H168.281V10.2z" fill="#036998"/><path d="M168.281 10.2h128.277v9.96H168.281V10.2zM211.051 117.5h11.219M253.75 117.5h-11.211" fill="none" stroke="#fff" stroke-width="4"/><path d="M450.121 248.32l10.5-22.3H3.161l10.51 22.3h436.45" fill="#036998"/><path d="M450.121 248.32l10.5-22.3H3.161l10.51 22.3h436.45z" fill="none" stroke="#fff" stroke-width="4"/><path d="M62.621 90.781h82.77v114.527H62.62V90.781z" fill="#036998"/><path d="M62.621 90.781h82.77v114.527H62.62V90.781z" fill="none" stroke="#fff" stroke-width="4"/><path d="M318.09 90.738h82.77V205.27h-82.77V90.74z" fill="#036998"/><path d="M318.09 90.738h82.77V205.27h-82.77V90.74z" fill="none" stroke="#fff" stroke-width="4"/></g></svg>
